build/image/pictureSVG/logo-desktop.svg

<svg xmlns="http://www.w3.org/2000/svg" width="148pt" height="73pt" viewBox="0 0 148 73" fill-rule="evenodd"><path d="M102.5 1c-2.9 1.2-6.2 5-8 9.3-1.7 4.2-2.8 4.9-1.9 1.2.5-2.1.3-2.5-1.5-2.5-1.2 0-2.1.6-2.1 1.4 0 .8-1.3 1.9-3 2.4-2.7 1-3 .9-3.6-1.4-.8-3-3.1-3.1-3.7-.2-.3 2-.5 1.8-1.2-1-1.1-4.6-4.1-4-3.8.8l.1 3.4-2-3.2C69.5 7.5 67 7 67 10.2c0 2.1 0 2.1-1.5.2-1.4-1.8-1.6-1.8-2.8-.2-1.3 1.6-1.6 1.4-3.8-2-3.8-5.9-12-7.6-17.4-3.6-1.6 1.2-2 2.5-1.8 7L40 17l-9.5-.6c-8-.6-9.8-.4-11.3.9-1.6 1.5-2.1 1.5-3.8.2-1-.8-2.7-1.5-3.6-1.5-3 0-2 2.6 1.6 4.5l3.4 1.8-.2 11.6c0 6.4 0 13.4.2 15.6.3 6.2-.2 10.3-1.6 11.7-.6.6-1.2 1.6-1.2 2 0 1.3 3.2.9 4.9-.5 1-.9 3.3-1.2 6.3-.9 4.3.4 4.7.6 3.8 2.2-1.4 2.6-1.3 3 .9 3 1.1 0 2.3-1.2 3.1-3l1.2-3 10.2.3 10.2.2-.4 2.9c-.6 3.5 1.7 3.2 3.5-.4.7-1.4 2-2.8 3-3.1 3.4-1.4 27.7-.9 46.5.8 20.9 1.9 26.1 1.3 27.1-3 .2-1.2 1.2-4.9 2-8.2.8-3.3 1.8-7.7 2.1-9.7.5-2.8 1.5-4.1 4.1-5.7 1.9-1.1 3.5-2.5 3.5-3.1 0-1.3-3.7-1.3-4.5 0-1.5 2.4-2.5.6-2.5-4.1 0-5.5-1.3-8.9-3.4-8.9-.8 0-1.6-.7-2-1.5-.3-.8-1.3-1.5-2.1-1.5-1.2 0-1.5-.6-1-2 .8-2.5-1.6-2.7-3.9-.4-1.3 1.2-2.7 1.4-6.4.9l-4.7-.6.4-5.6c.2-4.6 0-5.9-1.5-7-2-1.4-8.8-1.6-11.9-.3zM51 21.9c0 1.6-.6 3.1-1.4 3.4-1.9.8-2.6-.1-2.6-3.5 0-2.1.5-2.8 2-2.8s2 .7 2 2.9zm41.7 8.3l.8 8.3 3.2-6.3c3.5-7.1 5.9-10.2 8-10.2.9 0 .4 1.8-1.7 6.1l-3.1 6.1 3.5 8.1c3.6 8.3 3.7 9.7.8 9.7-1.3 0-2.5-2-4.2-6.5l-2.5-6.6-2 2.8c-1.1 1.5-2.2 4.3-2.5 6.2-.3 2.2-1.1 3.7-2.1 3.9-1.4.3-1.7-1.6-2.3-13.7-.7-14.3-.5-16.1 1.9-16.1.9 0 1.6 2.5 2.2 8.2zM67.1 24c2.3 1.3 2.5 4 .3 4-.8 0-2.2-.7-3.1-1.5-2.9-3-4.8-1.4-5.1 4.3l-.3 5.2h4.5c5.4 0 6.6 1.6 6.6 8.8 0 6.2-1.6 7.6-8.4 7.7h-5.1V49c0-2.5.5-3.6 1.8-3.8 1.3-.3 1.7.3 1.7 2.8 0 2.8.3 3.1 2.8 2.8 2.6-.3 2.7-.4 2.3-5.8-.2-3-.5-5.8-.8-6.3-.2-.4-2.2-.7-4.4-.7-3.3 0-4.1-.4-4.9-2.6-2.7-7.1.4-12.1 7.8-12.3 1.3-.1 3.2.4 4.3.9zm8.9 4.9c0 7.7.5 8.9 3.5 8.3 2.3-.4 2.5-.8 2.2-6.1-.2-5 0-5.6 1.8-5.6s2.1.9 2.8 11.8c.5 6.5.6 12.4.3 13.2-.3.8-1.5 1.5-2.7 1.5-1.5 0-1.9-.5-1.5-1.5.3-.9.3-3.6-.1-6-.5-4.2-.8-4.5-3.5-4.5h-2.9l.3 5.7c.3 5.4.1 5.8-1.9 6.1-2.3.3-2.3.3-2.3-13.6 0-13.7.2-14.8 3.3-15.1.4-.1.7 2.6.7 5.8zm-32.6-1.8c.3 1.7.6 8.1.6 14.1 0 8.9-.3 11-1.5 11.5-2.3.8-2.6.1-2.9-5.6-.3-5.2-1.6-8.5-1.6-4 0 2.6-1.6 4.9-3.5 4.9-.7 0-1.7-1.8-2.4-4-1.9-6.3-3.1-5.8-2.8 1.2.2 5.7 0 6.3-1.8 6.3-1.9 0-2-.9-2.6-12C24.2 26.3 24.4 25 27 25c1.2 0 2.6 2 4.5 6.5 1.6 3.6 3.1 6.5 3.5 6.5.4 0 1.5-2.8 2.5-6.3 2.3-8.2 4.8-10.1 5.9-4.6zm80.6-.5c.6 1.4 1 4 1 5.8 0 1.7.6 3.8 1.2 4.4 1 1 1 1.5.1 2-.6.4-1.3 3.2-1.5 6.2-.2 4.3-.7 5.6-2 5.8-1.5.3-1.8-.5-1.8-5.2s-.3-5.6-1.7-5.6c-1 0-2.8-.3-4-.6-2.2-.6-2.3-.3-2.3 4.9 0 3.6-.5 5.9-1.5 6.7-2.8 2.3-3.5 0-3.5-10.9 0-9.9.2-10.9 2.3-12.8 2.4-2.3 4.5-3 9.5-3.2 2.6-.1 3.4.4 4.2 2.5zM52.2 37c.1 4.9.2 10.2.2 11.7.1 2.1-.4 2.9-2 3.1-2 .3-2.1-.3-2.8-10.8-.4-6-.4-11.5-.1-12 .3-.6 1.5-1 2.6-1 1.7 0 1.9.8 2.1 9z"/><path d="M113.6 27.5c-.9 1-1.6 3.3-1.6 5.6 0 3.9 0 3.9 4.1 3.9h4l-.3-5.3c-.3-4.4-.6-5.2-2.4-5.5-1.2-.2-2.9.4-3.8 1.3zM19.8 8.6c-1.2 1.1.4 3.4 2.4 3.4 1.3 0 1.8-.6 1.6-1.7-.3-1.8-2.9-2.9-4-1.7zm101.8 3c-.4 1.1 0 1.5 1.6 1.2 1.2-.2 2.3-.9 2.6-1.6.6-1.8-3.5-1.5-4.2.4zM30 13c-.8.5-1.1 1.2-.8 1.6 1 .9 3.8-.3 3.8-1.6 0-1.2-1-1.3-3 0zm106.7 1.8c-2.2 2.4-2.1 3.2.1 3.2 1.8 0 5.2-2.9 5.2-4.3s-3.8-.6-5.3 1.1zM1.3 43.7c-.7.2-1.3 1.1-1.3 2 0 1.1.7 1.3 3.3.8 3.9-.9 4.7-1.3 4.7-2.6 0-.9-4.6-1.1-6.7-.2zM140 46.5c0 1.1 1.1 1.5 4 1.5s4-.4 4-1.5-1.1-1.5-4-1.5-4 .4-4 1.5zM59.5 64.1c-.4.6-.4 1.3-.1 1.6.8.8 3.6-.5 3.6-1.7 0-1.3-2.7-1.3-3.5.1zm58.4.6c-.1.4-.1 1.1 0 1.5 0 .5-1 .8-2.4.8s-2.5.3-2.5.8c0 1.8 3.3 5.2 5.1 5.2 2.2 0 2.3-.4.9-3-.8-1.5-.6-1.7 1.1-1.3 1.7.5 2 .2 1.7-1.8-.3-2.2-3.6-4.1-3.9-2.2z"/></svg>

<?xml version="1.0" encoding="UTF-8" standalone="yes"?>
<!-- Created with sK1/UniConvertor (http://sk1project.org/) -->
<svg xmlns="http://www.w3.org/2000/svg" xmlns:xlink="http://www.w3.org/1999/xlink"
  width="148pt" height="73pt" viewBox="0 0 148 73"
  fill-rule="evenodd">
<g>
<g>
<path style="stroke:none; fill:#000000" d="M 102.5 1C 99.6 2.2 96.3 6 94.5 10.3C 92.8 14.5 91.7 15.2 92.6 11.5C 93.1 9.4 92.9 9 91.1 9C 89.9 9 89 9.6 89 10.4C 89 11.2 87.7 12.3 86 12.8C 83.3 13.8 83 13.7 82.4 11.4C 81.6 8.4 79.3 8.3 78.7 11.2C 78.4 13.2 78.2 13 77.5 10.2C 76.4 5.6 73.4 6.2 73.7 11L 73.8 14.4L 71.8 11.2C 69.5 7.5 67 7 67 10.2C 67 12.3 67 12.3 65.5 10.4C 64.1 8.6 63.9 8.6 62.7 10.2C 61.4 11.8 61.1 11.6 58.9 8.2C 55.1 2.3 46.9 0.599998 41.5 4.6C 39.9 5.8 39.5 7.1 39.7 11.6L 40 17L 30.5 16.4C 22.5 15.8 20.7 16 19.2 17.3C 17.6 18.8 17.1 18.8 15.4 17.5C 14.4 16.7 12.7 16 11.8 16C 8.8 16 9.8 18.6 13.4 20.5L 16.8 22.3L 16.6 33.9C 16.6 40.3 16.6 47.3 16.8 49.5C 17.1 55.7 16.6 59.8 15.2 61.2C 14.6 61.8 14 62.8 14 63.2C 14 64.5 17.2 64.1 18.9 62.7C 19.9 61.8 22.2 61.5 25.2 61.8C 29.5 62.2 29.9 62.4 29 64C 27.6 66.6 27.7 67 29.9 67C 31 67 32.2 65.8 33 64L 34.2 61L 44.4 61.3L 54.6 61.5L 54.2 64.4C 53.6 67.9 55.9 67.6 57.7 64C 58.4 62.6 59.7 61.2 60.7 60.9C 64.1 59.5 88.4 60 107.2 61.7C 128.1 63.6 133.3 63 134.3 58.7C 134.5 57.5 135.5 53.8 136.3 50.5C 137.1 47.2 138.1 42.8 138.4 40.8C 138.9 38 139.9 36.7 142.5 35.1C 144.4 34 146 32.6 146 32C 146 30.7 142.3 30.7 141.5 32C 140 34.4 139 32.6 139 27.9C 139 22.4 137.7 19 135.6 19C 134.8 19 134 18.3 133.6 17.5C 133.3 16.7 132.3 16 131.5 16C 130.3 16 130 15.4 130.5 14C 131.3 11.5 128.9 11.3 126.6 13.6C 125.3 14.8 123.9 15 120.2 14.5L 115.5 13.9L 115.9 8.3C 116.1 3.7 115.9 2.4 114.4 1.3C 112.4 -0.0999985 105.6 -0.299995 102.5 1zM 51 21.9C 51 23.5 50.4 25 49.6 25.3C 47.7 26.1 47 25.2 47 21.8C 47 19.7 47.5 19 49 19C 50.5 19 51 19.7 51 21.9zM 92.7 30.2L 93.5 38.5L 96.7 32.2C 100.2 25.1 102.6 22 104.7 22C 105.6 22 105.1 23.8 103 28.1L 99.9 34.2L 103.4 42.3C 107 50.6 107.1 52 104.2 52C 102.9 52 101.7 50 100 45.5L 97.5 38.9L 95.5 41.7C 94.4 43.2 93.3 46 93 47.9C 92.7 50.1 91.9 51.6 90.9 51.8C 89.5 52.1 89.2 50.2 88.6 38.1C 87.9 23.8 88.1 22 90.5 22C 91.4 22 92.1 24.5 92.7 30.2zM 67.1 24C 69.4 25.3 69.6 28 67.4 28C 66.6 28 65.2 27.3 64.3 26.5C 61.4 23.5 59.5 25.1 59.2 30.8L 58.9 36L 63.4 36C 68.8 36 70 37.6 70 44.8C 70 51 68.4 52.4 61.6 52.5L 56.5 52.5L 56.5 49C 56.5 46.5 57 45.4 58.3 45.2C 59.6 44.9 60 45.5 60 48C 60 50.8 60.3 51.1 62.8 50.8C 65.4 50.5 65.5 50.4 65.1 45C 64.9 42 64.6 39.2 64.3 38.7C 64.1 38.3 62.1 38 59.9 38C 56.6 38 55.8 37.6 55 35.4C 52.3 28.3 55.4 23.3 62.8 23.1C 64.1 23 66 23.5 67.1 24zM 76 28.9C 76 36.6 76.5 37.8 79.5 37.2C 81.8 36.8 82 36.4 81.7 31.1C 81.5 26.1 81.7 25.5 83.5 25.5C 85.3 25.5 85.6 26.4 86.3 37.3C 86.8 43.8 86.9 49.7 86.6 50.5C 86.3 51.3 85.1 52 83.9 52C 82.4 52 82 51.5 82.4 50.5C 82.7 49.6 82.7 46.9 82.3 44.5C 81.8 40.3 81.5 40 78.8 40L 75.9 40L 76.2 45.7C 76.5 51.1 76.3 51.5 74.3 51.8C 72 52.1 72 52.1 72 38.2C 72 24.5 72.2 23.4 75.3 23.1C 75.7 23 76 25.7 76 28.9zM 43.4 27.1C 43.7 28.8 44 35.2 44 41.2C 44 50.1 43.7 52.2 42.5 52.7C 40.2 53.5 39.9 52.8 39.6 47.1C 39.3 41.9 38 38.6 38 43.1C 38 45.7 36.4 48 34.5 48C 33.8 48 32.8 46.2 32.1 44C 30.2 37.7 29 38.2 29.3 45.2C 29.5 50.9 29.3 51.5 27.5 51.5C 25.6 51.5 25.5 50.6 24.9 39.5C 24.2 26.3 24.4 25 27 25C 28.2 25 29.6 27 31.5 31.5C 33.1 35.1 34.6 38 35 38C 35.4 38 36.5 35.2 37.5 31.7C 39.8 23.5 42.3 21.6 43.4 27.1zM 124 26.6C 124.6 28 125 30.6 125 32.4C 125 34.1 125.6 36.2 126.2 36.8C 127.2 37.8 127.2 38.3 126.3 38.8C 125.7 39.2 125 42 124.8 45C 124.6 49.3 124.1 50.6 122.8 50.8C 121.3 51.1 121 50.3 121 45.6C 121 40.9 120.7 40 119.3 40C 118.3 40 116.5 39.7 115.3 39.4C 113.1 38.8 113 39.1 113 44.3C 113 47.9 112.5 50.2 111.5 51C 108.7 53.3 108 51 108 40.1C 108 30.2 108.2 29.2 110.3 27.3C 112.7 25 114.8 24.3 119.8 24.1C 122.4 24 123.2 24.5 124 26.6zM 52.2 37C 52.3 41.9 52.4 47.2 52.4 48.7C 52.5 50.8 52 51.6 50.4 51.8C 48.4 52.1 48.3 51.5 47.6 41C 47.2 35 47.2 29.5 47.5 29C 47.8 28.4 49 28 50.1 28C 51.8 28 52 28.8 52.2 37z"/>
<path style="stroke:none; fill:#000000" d="M 113.6 27.5C 112.7 28.5 112 30.8 112 33.1C 112 37 112 37 116.1 37L 120.1 37L 119.8 31.7C 119.5 27.3 119.2 26.5 117.4 26.2C 116.2 26 114.5 26.6 113.6 27.5z"/>
<path style="stroke:none; fill:#000000" d="M 19.8 8.6C 18.6 9.7 20.2 12 22.2 12C 23.5 12 24 11.4 23.8 10.3C 23.5 8.5 20.9 7.4 19.8 8.6z"/>
<path style="stroke:none; fill:#000000" d="M 121.6 11.6C 121.2 12.7 121.6 13.1 123.2 12.8C 124.4 12.6 125.5 11.9 125.8 11.2C 126.4 9.4 122.3 9.7 121.6 11.6z"/>
<path style="stroke:none; fill:#000000" d="M 30 13C 29.2 13.5 28.9 14.2 29.2 14.6C 30.2 15.5 33 14.3 33 13C 33 11.8 32 11.7 30 13z"/>
<path style="stroke:none; fill:#000000" d="M 136.7 14.8C 134.5 17.2 134.6 18 136.8 18C 138.6 18 142 15.1 142 13.7C 142 12.3 138.2 13.1 136.7 14.8z"/>
<path style="stroke:none; fill:#000000" d="M 1.3 43.7C 0.6 43.9 0 44.8 0 45.7C 0 46.8 0.7 47 3.3 46.5C 7.2 45.6 8 45.2 8 43.9C 8 43 3.4 42.8 1.3 43.7z"/>
<path style="stroke:none; fill:#000000" d="M 140 46.5C 140 47.6 141.1 48 144 48C 146.9 48 148 47.6 148 46.5C 148 45.4 146.9 45 144 45C 141.1 45 140 45.4 140 46.5z"/>
<path style="stroke:none; fill:#000000" d="M 59.5 64.1C 59.1 64.7 59.1 65.4 59.4 65.7C 60.2 66.5 63 65.2 63 64C 63 62.7 60.3 62.7 59.5 64.1z"/>
<path style="stroke:none; fill:#000000" d="M 117.9 64.7C 117.8 65.1 117.8 65.8 117.9 66.2C 117.9 66.7 116.9 67 115.5 67C 114.1 67 113 67.3 113 67.8C 113 69.6 116.3 73 118.1 73C 120.3 73 120.4 72.6 119 70C 118.2 68.5 118.4 68.3 120.1 68.7C 121.8 69.2 122.1 68.9 121.8 66.9C 121.5 64.7 118.2 62.8 117.9 64.7z"/>
</g>
</g>
</svg>
